packages/foundations/assets/icons/functional/images/file/paper_clip_20.svg

<svg width="20" height="20" viewBox="0 0 20 20" fill="none" xmlns="http://www.w3.org/2000/svg">
<g clip-path="url(#clip0_185_999)">
<path fill-rule="evenodd" clip-rule="evenodd" d="M14.3549 3.82872C15.3885 4.86986 15.4238 6.52708 14.4631 7.61034L8.95276 13.1278C8.56224 13.5183 7.92907 13.5183 7.53855 13.1278C7.17592 12.7651 7.15002 12.1933 7.46084 11.8008L12.9336 6.3185C13.2318 6.0203 13.2327 5.53709 12.9356 5.2378C12.6671 4.96735 12.2442 4.94336 11.9483 5.16684L6.41098 10.6939C5.42987 11.6751 5.42842 13.2653 6.40774 14.2482C7.34431 15.1882 8.84219 15.2285 9.82682 14.3671L14.6187 9.58316C15.0092 9.19264 15.6424 9.19264 16.0329 9.58316C16.3955 9.94579 16.4214 10.5176 16.1106 10.9102L11.3588 15.6715C9.59714 17.4267 6.74617 17.4215 4.99094 15.6599C3.28323 13.9459 3.2369 11.2031 4.85012 9.43332L10.4619 3.81456C11.5409 2.74348 13.2838 2.74982 14.3549 3.82872Z" fill="#1A1C1F"/>
</g>
<defs>
<clipPath id="clip0_185_999">
<rect width="20" height="20" fill="white"/>
</clipPath>
</defs>
</svg>

<svg xmlns="http://www.w3.org/2000/svg" width="20" height="20" fill="none"><g clip-path="url(#a)"><path fill="#1A1C1F" fill-rule="evenodd" d="M14.355 3.829a2.766 2.766 0 0 1 .108 3.781l-5.51 5.518A1 1 0 0 1 7.46 11.8l5.473-5.482a.766.766 0 0 0 .002-1.081.75.75 0 0 0-.988-.071l-5.537 5.527a2.516 2.516 0 0 0-.003 3.554c.936.94 2.434.98 3.419.12l4.792-4.785a1 1 0 0 1 1.492 1.327l-4.752 4.762a4.503 4.503 0 0 1-6.368-.012 4.516 4.516 0 0 1-.14-6.227l5.61-5.618a2.753 2.753 0 0 1 3.894.014" clip-rule="evenodd"/></g><defs><clipPath id="a"><path fill="#fff" d="M0 0h20v20H0z"/></clipPath></defs></svg>
